!!!!SEGMENT: pl-cz--i-33--002_haydn-joseph--partita-es-menuetto.krn
!!!cenid: 17xx:2178
!!!COM: Haydn, Joseph
!!!COM-rismid: pe55803
!!!CDT: 1732/03/31-1809/05/31
!!!CNT: Austrian
!!!OTL: Partita Es - Menuetto
!!!PDT:
!!!AGN: Secular
!!!SMS-siglum: PL-CZ
!!!SMS-shelfmark: I-33
!!!SMS-shelfwork: 001-002 M
!!!SMS-variant:
!!!SMS-altvar:
!!!NIFC-rismid: 300000454
!!!URL-scan: http://repozytorium.nifc.pl/skany/pl-cz-nut--i-33
!!!ONB-nifc: UWAGA: części Partity: 1. Moderato, 2. Menuetto, 3. Adagio, 4. Presto
**kern	**kern	**kern	**kern	**dynam	**kern
*part5	*part4	*part3	*part2	*part2	*part1
*staff5	*staff4	*staff3	*staff2	*	*staff1
*I"Cornuo 2do in Dis	*I"Cornuo Primo in Dis	*I"Fagotto	*I"Clarinetto Secundo	*	*I"Clarinetto Primo
*I'cor II	*I'cor I	*I'fag	*I'cl II	*	*I'cl I
*>[A,A,B,B,C,C,D,D,A,A,B,B]	*>[A,A,B,B,C,C,D,D,A,A,B,B]	*>[A,A,B,B,C,C,D,D,A,A,B,B]	*>[A,A,B,B,C,C,D,D,A,A,B,B]	*>[A,A,B,B,C,C,D,D,A,A,B,B]	*>[A,A,B,B,C,C,D,D,A,A,B,B]
*>A	*>A	*>A	*>A	*>A	*>A
*clefG2	*clefG2	*clefF4	*clefG2	*	*clefG2
*ITrd-2c-3	*ITrd-2c-3	*	*ITrd1c2	*	*ITrd1c2
*k[b-e-a-]	*k[b-e-a-]	*k[b-e-a-]	*k[b-e-a-]	*	*k[b-e-a-]
*E-:	*E-:	*E-:	*E-:	*	*E-:
*M3/4	*M3/4	*M3/4	*M3/4	*	*M3/4
=1	=1	=1	=1	=1	=1
!	!	!LO:TX:a:t=P:problem:błędnie znaki AA- D- F-	!	!	!
4g/	4ee-\	2EE-/	4g\	.	8.ee-\L
.	.	.	.	.	32ddt\LL
.	.	.	.	.	32ee-\JJJ
4r	4r	.	4b-\	.	4gg\
4g/	4ee-\	4E-\	4b-\	.	4ee-\
=2	=2	=2	=2	=2	=2
4b-/	4ff\	4BB-/	4a-\	.	4dd\
4ee-\	4gg\	4EE-/	4g\	.	4ee-\
4r	4r	4r	4r	.	4r
=3	=3	=3	=3	=3	=3-
4r	4r	4r	4G/	.	8.b-\L
.	.	.	.	.	32at\LL
.	.	.	.	.	32b-\JJJ
4r	4r	4r	4A-/	.	4cc\
4g/	4ee-\	4E-\	4B-/	.	4e-/
=4	=4	=4	=4	=4	=4
4b-/	4ff\	4BB-/	4A-/	.	4d/|
4g/	4ee-\	4EE-/	4G/	.	4e-/|
4r	4r	4r	4r	.	4r
=5	=5	=5	=5	=5	=5
!LO:TX:a:t=1.	!LO:TX:a:t=1.	!	!	!	!
2.r	2.r	4r	4g/	.	8.ee-\L
.	.	.	.	.	32dd\LL
.	.	.	.	.	32ee-\JJJ
.	.	4r	4e-/	.	4gg\
.	.	4En\	4g/	.	4b-\
=6	=6	=6	=6	=6	=6
*	*	*2\right	*	*	*
4r	4r	2F\	4c/	.	4a\
*2\right	*2\right	*	*	*	*
2ff\	2ff\	.	4a\	.	4.ff\
.	.	4AAn/	4cc\	.	.
.	.	.	.	.	8ee-\
=7	=7	=7	=7	=7	=7
4b-/	4ff\	4BB-/	4b-\	.	8dd\L
.	.	.	.	.	8ff\
4ee-\	4gg\	4E-X\	8g/L	.	8ee-\
.	.	.	8e-/	.	8cc\
4ff\	4ff\	4F\	8d/	.	8b-\
.	.	.	8c/J	.	8a\J
!	!	!	!	!	!LO:LB:g=original
=8	=8	=8	=8	=8	=8
*	*	*	*	*	*2\right
2b-/	2ff\	4B-\	2d/	.	2b-\
.	.	4F\	.	.	.
4r	4r	4BB-/	4r	.	4r
=9:|!|:	=9:|!|:	=9:|!|:	=9:|!|:	=9:|!|:	=9:|!|:
*>B	*>B	*>B	*>B	*>B	*>B
!LO:TX:a:t=3.	!LO:TX:a:t=1.	!	!	!LO:DY:a	!
!LO:N:vis=0	!	!	!	!	!
1.r	2.r	4r	4g\	p	8.b-\L
.	.	.	.	.	32at\LL
.	.	.	.	.	32b-\JJJ
.	.	4r	4a-X\	.	4cc\
.	.	4G\	4b-\	.	4dd-X\
!	!	!	!LO:LB:g=original	!	!
=10	=10	=10	=10	=10	=10
.	4gg\	4B-\	4d-X/	.	4eX/
!	!	!	!	!LO:DY:a	!
.	4ff\	4An\	4c/	f	4f/
.	4r	4En\	4c/	.	4g/
=11	=11	=11	=11	=11	=11
!	!LO:TX:a:t=1.	!	!	!	!LO:TUP:b:problem:klamra łukowa
2.r	2.r	4F\	4f/	.	12a-/L
.	.	.	.	.	12g/
.	.	.	.	.	12a-/J
.	.	4r	4g/	.	4b-\
.	.	4F\	4a-/	.	4cc\
=12	=12	=12	=12	=12	=12
4b-/	4ff\	4A-\	4B-/	.	4d/
4g/	4ee-\	4G\	4B-/	.	4e-X/
4b-/	4ff\	4D\	4B-/	.	4f/
!	!LO:LB:g=original	!LO:LB:g=original	!	!	!
=13	=13	=13	=13	=13	=13
*	*Xtuplet	*	*	*	*
!LO:TUP:a	!	!	!LO:TUP:b	!	!LO:TUP:a:problem:klamra łukowa
12ee-\L	12gg\L	4E-X\	12e-/L	.	12g\L
12ff\	12aa-\	.	12f/	.	12a-\
12gg\J	12bb-\J	.	12g/J	.	12b-\J
4ff\	4aa-\	4D\	4f/	.	4a-\
4ee-\	4gg\	4E-\	4e-/	.	4g\
!LO:PB:g=original	!	!	!	!	!
=14	=14	=14	=14	=14	=14
4gg\	4gg\	4B-\	4e-/	.	4g/
4ff\	4ff\	4BB-/	4d/	.	4f/
4r	4r	4AA-/	4r	.	4r
=15	=15	=15	=15	=15	=15
4e-/	4ee-\	4GG/	4B-/	.	8.ee-\L
.	.	.	.	.	32dd\LL
.	.	.	.	.	32ee-\JJJ
!	!	!	!	!	!LO:LB:g=original
4r	4r	4EE-/	4r	.	4gg\
4r	4r	4r	4r	.	4ee-\
=16	=16	=16	=16	=16	=16
4r	4r	4r	4r	.	2bX\
!	!	!LO:TX:a:t=P:problem:mixed beam	!	!	!
4e-/	4ee-\	8A-\L	4e-/	.	.
.	.	8G\	.	.	.
4e-/	4ee-\	8A-\	4e-/	.	8cc\
.	.	8AA-/J	.	.	8r
=17	=17	=17	=17	=17	=17
!LO:TX:a:t=1.	!	!	!	!	!
2.r	4ff\	4FF/	4a-\	.	8.ff\L
.	.	.	.	.	32ee-T\LL
.	.	.	.	.	32ff\JJJ
.	4r	4F\	4f/	.	4aa-\
!	!	!	!	!	!LO:SIC:v:4ff\
.	4r	4r	4r	.	4b-\
=18	=18	=18	=18	=18	=18
4r	4r	4r	4r	.	2cc#X\
!	!	!LO:TX:a:t=P:problem:mixed beam	!	!	!
4b-/	4ff\	8B-\L	4f/	.	.
.	.	8An\	.	.	.
4b-/	4ff\	8B-\	4f/	.	8dd\
.	.	8BB-/J	.	.	8r
=19	=19	=19	=19	=19	=19
2.ee-\	2.gg\	4E-\	4e-/	.	8.gg\L
.	.	.	.	.	32ff\LL
.	.	.	.	.	32gg\JJJ
.	.	4EE-/	4g/	.	4bb-\
.	.	4GG/	4b-/	.	4ee-\
=20	=20	=20	=20	=20	=20
2.ee-\	2.ff\	4AA-X/	4a-/	.	4cc\
.	.	4A-\	4e-/	.	4ccc\
.	.	4G\	4e-/	.	4bb-\
=21	=21	=21	=21	=21	=21
4ff\	4aa-\	4A-\	4cc\	.	8aa-\L
.	.	.	.	.	8ff\
4ee-\	4gg\	4B-\	4b-\	.	8gg\
.	.	.	.	.	8ee-\
4b-/	4ff\	4BB-/	4a-\	.	8ff\
.	.	.	.	.	8dd\J
=22	=22	=22	=22	=22	=22
*	*	*	*2\right	*	*
2g/	2ee-\	4E-\	2a-\	.	2dd\
.	.	4BB-/	.	.	.
4r	4r	4EE-/	8g/	.	8ee-\
.	.	.	8r	.	8r
!	!	!LO:LB:g=original	!LO:LB:g=original	!	!LO:LB:g=original
=23:|!	=23:|!	=23:|!	=23:|!	=23:|!	=23:|!
*>C	*>C	*>C	*>C	*>C	*>C
!LO:TX:a:t=Trio	!LO:TX:a:t=Trio	!LO:TX:a:t=Trio	!LO:TX:a:t=Trio	!	!LO:TX:a:t=Trio
!	!	!LO:TX:a:t=P:problem:błędnie znaki AA- C- E-	!	!	!
4e-/	4ee-\	4EE-/	4G/	.	4ee-\
!	!	!	!	!LO:DY:a	!
4r	4r	4r	4g\	f	4r
4r	4r	4r	4f\	.	4dd\
=24	=24	=24	=24	=24	=24
4e-/	4ee-\	4AA-/	4c/	.	4r
!	!	!	!	!LO:DY:a	!
4r	4r	4r	4a-\	p	4cc\
4r	4r	4r	4g\	.	4b-\
=25	=25	=25	=25	=25	=25
4r	4ff\	4FF/	4A-/	.	4r
!	!	!	!	!LO:DY:a	!
4r	4r	4r	4f\	f	4a-\
4ee-\	4gg\	4r	4e-/	.	4g\
=26	=26	=26	=26	=26	=26
.	.	.	.	.	8qqg/
2b-/	2ff\	4D\	2A-/	.	2f\
.	.	4BB-\	.	.	.
4g/	4ee-\	4E-\	4G/	.	4e-/
=27	=27	=27	=27	=27	=27
!	!	!	!	!LO:DY:a	!
4e-/	4ee-\	4EE-/	4G/	fp	4r
4r	4r	4r	4ee-\	.	4gg\
4r	4r	4r	4dd\	.	4ff\
=28	=28	=28	=28	=28	=28
!	!	!	!	!LO:DY:a	!
4ff\	4ff\	4F\	4c/	f	4r
!	!	!	!	!LO:DY:a	!
4r	4r	4r	4cc\	p	4ee-\
4r	4r	4r	4b-\	.	4dd\
=29	=29	=29	=29	=29	=29
2ee-\	2gg\	4E-\	4g/	.	4r
.	.	4BB-\	8g/L	.	8ee-\L
.	.	.	8e-/	.	8cc\
4ff\	4aaX\	4F\	8d/	.	8b-\
.	.	.	8c/J	.	8a\J
=30	=30	=30	=30	=30	=30
2b-/	2bb-\	4B-\	2d/	.	2b-\
.	.	4F\	.	.	.
4r	4r	4BB-/	4r	.	4r
!LO:LB:g=original	!LO:LB:g=original	!	!	!	!
=31:|!|:	=31:!|:	=31:|!|:	=31:|!|:	=31:|!|:	=31:|!|:
*>D	*>D	*>D	*>D	*>D	*>D
4e-/	4ee-\	4EE-/	4r	.	4r
4r	4r	4r	4g\	.	4b-\
4r	4r	4r	4a-\	.	4cc\
!	!	!	!	!	!LO:LB:g=original
=32	=32	=32	=32	=32	=32
4e-/	4ee-\	4EE-/	4r	.	4r
4r	4r	4r	4b-\	.	4dd-X\
4r	4r	4r	4a-\	.	4cc\
=33	=33	=33	=33	=33	=33
4ff\	4ff\	4FF/	4r	.	4r
4r	4r	4r	4a\	.	4cc\
4r	4r	4r	4b-\	.	4ddn\
=34	=34	=34	=34	=34	=34
4ff\	4ff\	4FF/	4r	.	4r
4r	4r	4r	4cc\	.	4ee-\
4r	4r	4r	4b-\	.	4dd\
!	!	!	!LO:LB:g=original	!	!
=35	=35	=35	=35	=35	=35
4b-/	4ff\	4BB-/	4r	.	4r
4r	4r	4r	4dd\	.	4ff\
4r	4r	4r	4ee-\	.	4gg\
=36	=36	=36	=36	=36	=36
4b-/	4ff\	4BB-/	4r	.	4r
4r	4r	4r	8ff\L	.	8aa-\L
.	.	.	8dd\	.	8ff\
4ee-\	4gg\	4r	8ee-\	.	8gg\
.	.	.	8cc\J	.	8ee-\J
!	!	!LO:LB:g=original	!	!	!
=37	=37	=37	=37	=37	=37
8qqgg/	8qqbb-/	.	8qqb-/	.	8qqff/
4ff\	4aa-\	4A-\	4a-\	.	4ff\
8qqee-/	8qqaa-/	.	.	.	.
4ee-\	4gg\	4B-\	4g\	.	4ee-\
4qqdd/	8qqgg/	.	.	.	.
4dd\	4ff\	4BB-/	8f/L	.	4dd\
.	.	.	8a-/J	.	.
=38	=38	=38	=38	=38	=38
2b-/	2ff\	4E-\	2a-\	.	2dd\
.	.	4BB-\	.	.	.
!	!	!LO:TX:a:t=Me&colon; Da capo	!	!	!
8g/	8ee-\	4EE-/	8g\	.	8ee-\
!	!LO:TX:b:t=Menuetto \nDaCapo	!	!	!	!
8r	8r	.	8r	.	8r
=:|!	=:|!	=:|!	=:|!	=:|!	=:|!
*-	*-	*-	*-	*-	*-
!!!system-decoration: [(s1,s2,s3,s4,s5)]
!!!RDF**kern: > = above
!!!RDF**kern: < = below
!!!RDF**kern: | = vertical stroke
!!!ENC: Berenika Jozajtis
!!!END: 2021-06-25
!!!ENC: Marta Lawrence
!!!END: 2021-06-28
